icons/spark-dark.svg

<svg width="256" height="256" viewBox="0 0 256 256" fill="none" xmlns="http://www.w3.org/2000/svg">
<path d="M196 0H60C26.8629 0 0 26.8629 0 60V196C0 229.137 26.8629 256 60 256H196C229.137 256 256 229.137 256 196V60C256 26.8629 229.137 0 196 0Z" fill="#282828"/>
<path fill-rule="evenodd" clip-rule="evenodd" d="M180.829 167.005L179.916 165.062L159.951 127.215C159.276 125.948 159.36 125.194 160.253 124.117L191.837 87.0234C192.205 86.5891 192.54 86.1247 192.681 85.3526L183.459 87.7653L145.159 97.9435C143.971 98.2631 143.431 97.9133 142.837 96.9302L121.087 60.6927C120.71 60.0654 120.303 59.4864 119.504 58.9285L117.748 68.6001L111.678 102.769L111.05 106.46C110.948 107.666 110.345 108.07 109.283 108.405L64.1945 122.655C63.531 122.866 62.8917 123.131 62.183 123.777L99.2769 138.506L98.1912 139.359L75.1116 154.278C74.7356 154.571 74.2819 154.748 73.8066 154.787C73.3312 154.825 72.855 154.724 72.4366 154.495L44.8544 142.203C40.7288 140.393 37.0134 137.911 34.1243 134.377C27.5891 126.385 28.8768 117.287 37.5864 111.759C40.4363 109.94 43.6722 108.577 46.8991 107.525L91.1886 93.456C92.3949 93.07 92.9981 92.5151 93.2303 91.1731L99.2618 57.0044C100.36 50.9186 100.945 44.6398 103.906 39.0968C105.043 36.9858 106.409 34.8506 108.029 33.0532C113.894 26.5392 122.082 26.2919 128.283 32.4923C130.376 34.5852 132.203 37.0551 133.732 39.5884L153.944 73.172C154.734 74.4989 155.452 74.7703 156.911 74.3783L206.418 61.2265C209.82 60.3278 213.264 59.9991 216.753 60.6234C224.353 62.0468 227.679 67.8612 225.107 75.1774C223.937 78.4948 221.916 81.3507 219.678 84.0197L185.127 124.633C184.183 125.737 184.162 126.533 184.816 127.769L205.39 166.775C207.03 169.888 208.285 173.117 208.315 176.691C208.396 184.822 202.452 191.474 194.373 192.657C189.849 193.32 185.645 192.355 181.405 191.046L150.343 181.598C149.384 181.311 149.016 180.934 148.847 179.9L145.101 158.066C145.065 157.867 145.126 157.65 145.156 157.203L180.802 167.035" fill="#E25A1C"/>
<path d="M99.247 138.505L105.821 141.37L98.5141 199.575L138.455 155.303L145.189 157.194L153.483 182.406L142.704 178.606L114.814 208.715C114.814 208.715 102.341 221.629 95.5798 219.452C88.8185 217.274 83.1126 211.249 82.4793 200.476C81.846 189.704 78.9931 158.949 78.9931 158.949L65.3618 149.124L99.247 138.505Z" fill="#E25A1C"/>
<path d="M78.9897 158.953C78.9897 158.953 72.9702 225.52 84.6955 227.736C96.4208 229.953 83.4289 227.42 83.4289 227.42C83.4289 227.42 90.0847 235.028 116.391 206.816L142.701 178.606L90.0817 209.669C91.3483 208.083 96.7375 154.197 96.7375 154.197L78.9897 158.953Z" fill="#E25A1C"/>
</svg>

<svg xmlns="http://www.w3.org/2000/svg" width="256" height="256" fill="none"><path fill="#282828" d="M196 0H60C26.863 0 0 26.863 0 60v136c0 33.137 26.863 60 60 60h136c33.137 0 60-26.863 60-60V60c0-33.137-26.863-60-60-60"/><path fill="#E25A1C" fill-rule="evenodd" d="m180.829 167.005-.913-1.943-19.965-37.847c-.675-1.267-.591-2.021.302-3.098l31.584-37.094c.368-.434.703-.898.844-1.67l-9.222 2.412-38.3 10.179c-1.188.32-1.728-.03-2.322-1.014l-21.75-36.237c-.377-.628-.784-1.207-1.583-1.764l-1.756 9.671-6.07 34.169-.628 3.691c-.102 1.206-.705 1.61-1.767 1.945l-45.088 14.25c-.664.211-1.303.476-2.012 1.122l37.094 14.729-1.086.853-23.08 14.919a2.45 2.45 0 0 1-2.675.217l-27.582-12.292c-4.125-1.81-7.84-4.292-10.73-7.826-6.535-7.992-5.247-17.09 3.462-22.618 2.85-1.819 6.086-3.182 9.313-4.234l44.29-14.069c1.206-.386 1.81-.94 2.041-2.283l6.032-34.169c1.098-6.085 1.683-12.364 4.644-17.907 1.137-2.111 2.503-4.246 4.123-6.044 5.865-6.514 14.053-6.761 20.254-.56 2.093 2.092 3.92 4.562 5.449 7.095l20.212 33.584c.79 1.327 1.508 1.598 2.967 1.206l49.507-13.151c3.402-.9 6.846-1.228 10.335-.604 7.6 1.424 10.926 7.238 8.354 14.554-1.17 3.318-3.191 6.174-5.429 8.843l-34.551 40.613c-.944 1.104-.965 1.9-.311 3.136l20.574 39.006c1.64 3.113 2.895 6.342 2.925 9.916.081 8.131-5.863 14.783-13.942 15.966-4.524.663-8.728-.302-12.968-1.611l-31.062-9.448c-.959-.287-1.327-.664-1.496-1.698l-3.746-21.834c-.036-.199.025-.416.055-.863l35.646 9.832" clip-rule="evenodd"/><path fill="#E25A1C" d="m99.247 138.505 6.574 2.865-7.307 58.205 39.941-44.272 6.734 1.891 8.294 25.212-10.779-3.8-27.89 30.109s-12.473 12.914-19.234 10.737c-6.761-2.178-12.467-8.203-13.1-18.976-.634-10.772-3.487-41.527-3.487-41.527l-13.631-9.825z"/><path fill="#E25A1C" d="M78.99 158.953s-6.02 66.567 5.706 68.783-1.267-.316-1.267-.316 6.656 7.608 32.962-20.604l26.31-28.21-52.62 31.063c1.267-1.586 6.656-55.472 6.656-55.472z"/></svg>
